!!!Genre:	Freylekhs
!!!Mode:	Altered Dorian
!!!Listening/dance:	dance
!!!:	*G:
!!!One_Mode:	no
**kern
*part1
*staff1
*clefG2
*k[b-]
*g:dor
*M2/4
*>A
=1-
16dLL
16g
16b-
16ddJJ
16cc#XLL
16dd
16b-
16ddJJ
=2
16cc#XLL
16dd
16b-
16ddJJ
16cc#LL
16b-
16a
16gJJ
=3
16dLL
16g
16b-
16ddJJ
16cc#XLL
16dd
16b-
16cc#JJ
=4
4dd
4gg
=5
16dLL
16g
16b-
16ddJJ
16cc#XLL
16dd
16b-
16ddJJ
=6
16cc#XLL
16dd
16b-
16ddJJ
16cc#LL
16b-
16a
16gJJ
=7
16b-LL
16a
16ccn
16b-JJ
16aLL
16g
16a
16b-JJ
*>A1
=8
4g
4gg
*>A2
=9:|!
2g
*>bM
*G:
=10!|:
*k[f#]
*>B
!LO:TX:a:i:t=G-major
16ff#XLL
16gg
16ff#
16ggJJ
8eeL
16ddL
16ccJJ
=11
16bLL
16dd
16b
16ddJJ
8bL
16aL
16gJJ
=12
16aLL
16b
16cc
16ddJJ
16bLL
16g
16a
16f#JJ
*>B1
=13
4g
4gg
*>B2
=14:|!
2g
*>eM
*g:dor
=15!|:
*k[b-]
*>C
!LO:TX:a:i:t=G-dorian
(>8qccc#X/
2ddd)
=16
(>8qccc#X/
2ddd)
=17
(>16dddLL
16eee)
16fff
16eeeJJ
(>16fffLL
16eee)
16ddd
16ccc#XJJ
=18
8dddL
16dddL
16dddJJ
16dddLL
16ddd
16ddd
16dddJJ
=19
(>16dddLL
16eee)
16fff
16eeeJJ
(>16fffLL
16eee)
16ddd
16ccc#XJJ
=20
2ddd
=21
(>16bb-LL
16ccc#X)
16ddd
16ccc#JJ
(>16dddLL
16ccc#)
16bb-
16aaJJ
=22
2bb-
=23
(>16ggLL
16aa)
16bb-
16aaJJ
16bb-LL
16aa
16gg
16ff#XJJ
=24
2gg
=:|!
*-
